packages/core/src/svgs/tokens/mono/WXT.svg

<svg width="24" height="24" viewBox="0 0 24 24" fill="none" xmlns="http://www.w3.org/2000/svg">
<path d="M19.3038 6.21045L17.0916 14.1052L14.9353 6.21045H11.13L9.00369 14.1052L6.7779 6.21045H4.08211L4.82422 8.84202H2V10.9473H5.4358L5.94001 12.5262H2V14.6315H6.56212L7.46632 17.7894H10.6858L13.051 8.84202L15.39 17.7894H18.61L22 6.21045H19.3038Z" fill="white"/>
</svg>

<svg xmlns="http://www.w3.org/2000/svg" width="24" height="24" fill="none" viewBox="0 0 24 24">
    <path fill="#fff" d="m19.304 6.21-2.212 7.895-2.157-7.895H11.13l-2.126 7.895L6.778 6.21H4.082l.742 2.632H2v2.105h3.436l.504 1.58H2v2.105h4.562l.904 3.157h3.22l2.365-8.947 2.339 8.947h3.22L22 6.21z"/>
</svg>
